X:17285
T:The Tidy House
M:4/4
L:1/8
C:Bill Anderson (Melbourne)
K:Bmin
DBBF DF DF|~E3 F GE E2|~F3 G ~A3 B|ceec dBFd|
BF F2 DF ~F2|EFGE BF ~F2|D3 E F3 G|ABcA dB ~B2:|
dBfB dBfB|eBfB gBfB|dBfB dB ~B2|ecAc dBBc|
defd bd d2|efge cA A2|dcBc dB B2|cA A2 FB B2:|
df f2 =f^ffe|dfbf dB B2|ce e2 ~A3 B|cege cA ~A2|
df f2 b2 z f|b3 f dB B2|ecAc ecAc|dfec dB ~B2:|
